brandFactory_export/1.Light/Flechas Izquierda y Derecha_1Light.svg

<?xml version="1.0" encoding="UTF-8"?>
<svg width="24px" height="24px" viewBox="0 0 24 24" version="1.1" xmlns="http://www.w3.org/2000/svg" xmlns:xlink="http://www.w3.org/1999/xlink">
    <title>1.Light/Flechas Izquierda y Derecha_1Light</title>
    <g id="Symbols" stroke="none" stroke-width="1" fill="none" fill-rule="evenodd">
        <g id="1.Light/Flechas-Izquierda-y-Derecha_1Light" fill="#5CB615" fill-rule="nonzero">
            <path d="M17.6840336,13.8252101 C17.5932773,13.8252101 17.502521,13.805042 17.4151261,13.7647059 C17.2033613,13.6638655 17.0756303,13.4621849 17.0756303,13.2336134 L17.0521008,10.5411765 L12.9848739,10.5478992 C12.3495798,10.5478992 11.8319328,10.0302521 11.8319328,9.39495798 L11.8319328,6.44369748 C11.8319328,5.80840336 12.3495798,5.2907563 12.9848739,5.2907563 L17.0554622,5.28739496 L17.0789916,2.59159664 C17.0789916,2.36638655 17.210084,2.16470588 17.4184874,2.06386555 C17.6369748,1.95966387 17.8890756,1.98991597 18.0773109,2.14117647 C18.087395,2.14789916 18.0941176,2.15462185 18.1008403,2.16470588 L23.4655462,7.4789916 C23.5764706,7.57310924 23.6470588,7.70756303 23.6672269,7.85210084 C23.6840336,8.00672269 23.6436975,8.15798319 23.5462185,8.28235294 C23.5226891,8.31260504 23.4957983,8.3394958 23.4655462,8.36638655 L18.097479,13.6638655 C18.0907563,13.6705882 18.0806723,13.6773109 18.0739496,13.6840336 C17.9596639,13.7747899 17.8218487,13.8252101 17.6840336,13.8252101 L17.6840336,13.8252101 Z M17.1226891,9.86218487 C17.4453782,9.86218487 17.7142857,10.1210084 17.7243697,10.4436975 L17.7243697,10.4504202 L17.7445378,13.0621849 L22.9546218,7.91932773 L17.7445378,2.74957983 L17.7243697,5.36134454 L17.7243697,5.36806723 C17.7142857,5.6907563 17.4453782,5.94957983 17.1226891,5.94957983 L17.112605,5.94957983 L12.9848739,5.95294118 C12.7193277,5.95294118 12.5042017,6.16806723 12.5042017,6.43361345 L12.5042017,9.38487395 C12.5042017,9.65042017 12.7193277,9.86554622 12.9848739,9.86554622 L17.112605,9.85882353 C17.1159664,9.86218487 17.1193277,9.86218487 17.1226891,9.86218487 Z M6.01680672,21.6840336 C5.8789916,21.6840336 5.74117647,21.6369748 5.6302521,21.5462185 C5.62016807,21.5394958 5.61344538,21.5327731 5.60672269,21.5226891 L0.238655462,16.1983193 C0.127731092,16.1042017 0.0571428571,15.9697479 0.0369747899,15.8252101 C0.0201680672,15.6705882 0.0605042017,15.5193277 0.157983193,15.394958 C0.181512605,15.3647059 0.208403361,15.3378151 0.238655462,15.3109244 L5.60672269,10.0134454 C5.61344538,10.0067227 5.62352941,10 5.6302521,9.99327731 C5.81848739,9.84201681 6.06722689,9.81176471 6.28907563,9.91596639 C6.50084034,10.0168067 6.62857143,10.2184874 6.62857143,10.4470588 L6.65210084,13.1394958 L10.7193277,13.1327731 C11.3546218,13.1327731 11.8722689,13.6504202 11.8722689,14.2857143 L11.8722689,17.2369748 C11.8722689,17.8722689 11.3546218,18.389916 10.7193277,18.389916 L6.6487395,18.3932773 L6.62521008,21.092437 C6.62521008,21.3176471 6.49411765,21.5193277 6.28571429,21.6201681 C6.20168067,21.6638655 6.10756303,21.6840336 6.01680672,21.6840336 L6.01680672,21.6840336 Z M0.746218487,15.7546218 L5.95630252,20.9243697 L5.97647059,18.312605 L5.97647059,18.3058824 C5.98655462,17.9764706 6.26218487,17.7176471 6.58823529,17.7243697 L10.7159664,17.7210084 C10.9815126,17.7210084 11.1966387,17.5058824 11.1966387,17.2403361 L11.1966387,14.2890756 C11.1966387,14.0235294 10.9815126,13.8084034 10.7159664,13.8084034 L6.58823529,13.8151261 C6.26218487,13.8218487 5.98655462,13.5630252 5.97647059,13.2336134 L5.97647059,13.2268908 L5.95630252,10.6151261 L0.746218487,15.7546218 L0.746218487,15.7546218 Z" id="Flechas-Izquierda-y-Derecha_1Light"></path>
        </g>
    </g>
</svg>

<svg width="24" height="24" viewBox="0 0 24 24" xmlns="http://www.w3.org/2000/svg"><path d="M17.684 13.825a.64.64 0 01-.269-.06.582.582 0 01-.34-.531l-.023-2.693-4.067.007a1.155 1.155 0 01-1.153-1.153V6.444c0-.636.518-1.153 1.153-1.153l4.07-.004.024-2.695c0-.226.131-.427.34-.528a.618.618 0 01.658.077c.01.007.017.014.024.024l5.365 5.314c.11.094.181.229.201.373a.585.585 0 01-.201.514l-5.369 5.298c-.006.007-.016.013-.023.02a.631.631 0 01-.39.141zm-.561-3.963c.322 0 .591.259.601.582v.006l.02 2.612 5.21-5.143-5.21-5.17-.02 2.612v.007a.604.604 0 01-.601.582h-.01l-4.128.003a.48.48 0 00-.48.48v2.952c0 .265.214.48.48.48l4.128-.006c.003.003.006.003.01.003zM6.017 21.684a.612.612 0 01-.41-.161L.239 16.198a.597.597 0 01-.202-.373.585.585 0 01.202-.514l5.368-5.298c.006-.006.017-.013.023-.02a.618.618 0 01.66-.077c.21.1.339.302.339.531l.023 2.692 4.067-.006c.636 0 1.153.517 1.153 1.153v2.951c0 .635-.517 1.153-1.153 1.153l-4.07.003-.024 2.7a.587.587 0 01-.34.527.586.586 0 01-.268.064zm-5.27-5.93l5.21 5.17.02-2.611v-.007a.601.601 0 01.611-.582l4.128-.003a.48.48 0 00.48-.48v-2.952a.48.48 0 00-.48-.48l-4.128.006a.601.601 0 01-.612-.581v-.007l-.02-2.612-5.21 5.14z" fill="#5CB615" fill-rule="nonzero"/></svg>
